X:12
T:Lord Harwick’s March. HS.12
M:C|
L:1/8
Q:1/2=100
C:Primo
S:Henry Stables MS,Cumbria,late19thC
R:.Quadrille
O:Walthwaite,nr.Ambleside.
A:England
Z:vmp.Chris Partington
K:D
“Segno”ag|f2f>ff2f2|f3a d’agf|e2e>ee2e2|e3f gbag|!
f2f>ff2f2|f3a d’agf|.e.b.a.g. .f.e.d.c|d2d>dd2:|!
|:f2|a2a>aa2a2|f2d2a4|AA/A/ AA AAAA|F2D2A2a>a|!
a2 A>AA2a>a|a2 A>AA2A>A|d’d’ aa fafd|a2a>aa4:|!
|:d4A4|f4d4|a2d’af2af|d2feA2g2|!
f2 (d/e/f/g/) .a.a .d’.d’|d’2(d/e/f/g/) aac’c’|d’d’ aa fafd|a2a>a a4:|!
|:AA/A/ AA AAAA|g4e4|AA/A/ AA AAAA|a4f4|!
g2zfg2zf|.g2.f2.e2.d2|1a2g2f2e2:|2c2B2A2G2|]

